X:69
T:N'oublies pas (R. Robert)
C:Pennec: Tablatures
C:Pierard/Zimmermann: Gout d'hier
M:3/4
L:1/8
K:C
eA ce ab|aA ce ba|eA ce ae|d6|\
d2 ed ed|cE AB cA|BE Bd cd|e6|
eA ce ab|aA ce ba|eA ce ae|d6|\
d2 ed ed|cE AB cA|BE Bd cB|A6:|
|:AE Ac ec|AE Ac ec|d2 ed Bd|e2c2B2|\
AE Ac ec|AE Ac ec|d2 ed Bd|B6|
AE Ac ec|AE Ac ec|d2 ed Bd|e2c2B2|\
e2d2c2|dG Bd BG|AE Ac ec|A6:|
